X: 1
T: Christy Barry's
R: jig
M: 6/8
L: 1/8
K: Gmaj
G3 BAG|A2B d2e|ged BAG|A3 BGE|
G3 BAG |A2B d2e|ged BAG|A2G G3:|
g3 efg|a3 d2e|ged BAG|A3 BGE|
G3 BAG |A2B d2e|ged BAG|A2G G3:|


Tune 843	Setting 14013

